resources/svg/install-fill.svg

<svg fill="currentColor" viewBox="0 0 24 24" xmlns="http://www.w3.org/2000/svg"><path d="M11 2V7H8L12 11L16 7H13V2H20C20.5523 2 21 2.44772 21 3V21C21 21.5523 20.5523 22 20 22H4C3.44772 22 3 21.5523 3 21V3C3 2.44772 3.44772 2 4 2H11ZM19 16H5V20H19V16ZM17 17V19H15V17H17Z"/></svg>

<svg xmlns="http://www.w3.org/2000/svg" viewBox="0 0 24 24" fill="currentColor">
    <g>
        <path fill="none" d="M0 0h24v24H0z"/>
        <path fill-rule="nonzero" d="M11 2v5H8l4 4 4-4h-3V2h7a1 1 0 0 1 1 1v18a1 1 0 0 1-1 1H4a1 1 0 0 1-1-1V3a1 1 0 0 1 1-1h7zm8 14H5v4h14v-4zm-2 1v2h-2v-2h2z"/>
    </g>
</svg>
